symbols/web/local_atm/materialsymbolssharp/local_atm_wght300_40px.svg

<svg xmlns="http://www.w3.org/2000/svg" height="40" width="40"><path d="M19 28.042h2.125V26.25H24.5v-7.333h-6.875v-3.084H24.5V13.75h-3.375v-1.792H19v1.792h-3.458V21h6.833v3.167h-6.833v2.083H19ZM4.167 32.5v-25h31.666v25Zm2.083-2.083h27.5V9.583H6.25Zm0 0V9.583v20.834Z"/></svg>

<svg xmlns="http://www.w3.org/2000/svg" height="40" width="40"><path d="M19 28.042H21.125V26.25H24.5V18.917H17.625V15.833H24.5V13.75H21.125V11.958H19V13.75H15.542V21H22.375V24.167H15.542V26.25H19ZM4.167 32.5V7.5H35.833V32.5ZM6.25 30.417H33.75V9.583H6.25ZM6.25 30.417V9.583V30.417Z"/></svg>
